X:5901
T:Se\'an Bu\'i
T:Over the Water to Charlie
O:england
R:slide
M:6/8
K:D
DFA BFA|Bcd AFA|DFA BFA|B2c d2D|
DFA BFA|Bcd AFA|fed edc|1 B2c d2D:|2 B2c d2e||
|:fed edc|Bcd AFA|fed edc|B2e e2g|
[1 fed edc|Bcd AFA|~D3 AFA|B2c d2e:|
[2 afd gec|dcB AFA|~D3 AFA|B2c d2D||
K:G
~G3 dBd|ece dBd|~G3 dBd|e2f g3|~G3 dBd|ece dBd|bag agf|e2f g3:|
bag agf|efg dBd|bag agf|e2a a3|bag agf|efg dBd|~G3 dBd|e2f g3:|
